packages/lingua-franca/static/images/index/get-started-handbook-blue.svg

<?xml version="1.0" encoding="UTF-8" standalone="no"?>
<svg
   width="191"
   height="216"
   viewBox="0 0 191 216"
   fill="none"
   version="1.1"
   id="svg12"
   sodipodi:docname="get-started-handbook-blue.svg"
   inkscape:version="1.1.2 (0a00cf5339, 2022-02-04, custom)"
   xmlns:inkscape="http://www.inkscape.org/namespaces/inkscape"
   xmlns:sodipodi="http://sodipodi.sourceforge.net/DTD/sodipodi-0.dtd"
   xmlns="http://www.w3.org/2000/svg"
   xmlns:svg="http://www.w3.org/2000/svg">
  <defs
     id="defs16" />
  <sodipodi:namedview
     id="namedview14"
     pagecolor="#ffffff"
     bordercolor="#666666"
     borderopacity="1.0"
     inkscape:pageshadow="2"
     inkscape:pageopacity="0.0"
     inkscape:pagecheckerboard="0"
     showgrid="false"
     inkscape:zoom="4.0416667"
     inkscape:cx="107.25773"
     inkscape:cy="-35.628866"
     inkscape:window-width="1920"
     inkscape:window-height="1131"
     inkscape:window-x="0"
     inkscape:window-y="0"
     inkscape:window-maximized="1"
     inkscape:current-layer="svg12" />
  <path
     d="M0 1L185.5 2V215.5L0 215V1Z"
     fill="#5495DC"
     fill-opacity="0.2"
     id="path2" />
  <path
     d="M0 1.35547L186 1.35547V215.355"
     stroke="white"
     stroke-opacity="0.2"
     id="path4" />
  <path
     d="M186.5 4.35547H188V215.355"
     stroke="white"
     stroke-opacity="0.17"
     id="path6" />
  <path
     d="M188.5 8.35547H190V215.355"
     stroke="white"
     stroke-opacity="0.17"
     id="path8" />
  <text
     xml:space="preserve"
     style="font-size:96px;line-height:1;font-family:sans-serif;letter-spacing:0px;word-spacing:0px;fill:#61ace8;fill-opacity:0.65098041"
     x="2.3824098"
     y="-24.573132"
     id="text19077"><tspan
       sodipodi:role="line"
       id="tspan19075"
       x="2.3824098"
       y="-24.573132" /></text>
  <text
     xml:space="preserve"
     style="font-size:96px;line-height:1;font-family:Cantarell;letter-spacing:0px;word-spacing:0px;fill:#5091dc;fill-opacity:0.2;-inkscape-font-specification:Cantarell;font-weight:normal;font-style:normal;font-stretch:normal;font-variant:normal"
     x="29.556379"
     y="-59.628864"
     id="text24384"><tspan
       sodipodi:role="line"
       id="tspan24382"></tspan></text>
  <text
     xml:space="preserve"
     style="font-size:13.3333px;line-height:1;font-family:sans-serif;letter-spacing:0px;word-spacing:0px;fill:#62afeb;fill-opacity:0.929412"
     x="15.048326"
     y="29.796066"
     id="text36623"><tspan
       sodipodi:role="line"
       id="tspan36621"
       x="15.048326"
       y="29.796066"
       style="font-size:13.3333px;fill:#62afeb;fill-opacity:0.929412">Welcome to Lingua Franca</tspan></text>
</svg>

<?xml version="1.0" encoding="utf-8"?>
<!-- Generator: Adobe Illustrator 26.2.1, SVG Export Plug-In . SVG Version: 6.00 Build 0)  -->
<svg version="1.1" id="Layer_1" xmlns="http://www.w3.org/2000/svg" xmlns:xlink="http://www.w3.org/1999/xlink" x="0px" y="0px"
	 viewBox="0 0 191 216" style="enable-background:new 0 0 191 216;" xml:space="preserve">
<style type="text/css">
	.st0{fill:#5495DC;fill-opacity:0.2;}
	.st1{fill:none;stroke:#FFFFFF;stroke-opacity:0.2;}
	.st2{fill:none;stroke:#FFFFFF;stroke-opacity:0.17;}
	.st3{font-family:'MyriadPro-Regular';}
	.st4{font-size:14px;}
	.st5{fill:url(#SVGID_1_);}
	.st6{fill:#C48200;}
	.st7{fill:#003164;}
</style>
<path class="st0" d="M0,1l185.5,1v213.5L0,215V1z"/>
<path class="st1" d="M0,1.4h186v214"/>
<path class="st2" d="M186.5,4.4h1.5v211"/>
<path class="st2" d="M188.5,8.4h1.5v207"/>
<text transform="matrix(1 0 0 1 11 17)" class="st3 st4">Welcome to Lingua Franca</text>
<g>
	<g>
		<g>
			
				<linearGradient id="SVGID_1_" gradientUnits="userSpaceOnUse" x1="141.2832" y1="61.3745" x2="83.302" y2="61.3745" gradientTransform="matrix(-1 0 0 1 200.4404 0)">
				<stop  offset="0" style="stop-color:#FFFFFF"/>
				<stop  offset="1" style="stop-color:#003164"/>
			</linearGradient>
			<path class="st5" d="M111.3,73c-2.9-10.1-12.1-17.5-23.1-17.5S67.9,62.9,65,73h-5.9c3-13.2,14.9-23.2,29-23.2
				c14.1,0,26,9.9,29,23.2H111.3z"/>
		</g>
	</g>
</g>
<path class="st6" d="M85,86.3v26.1h5.8V86.3c1.8-0.7,3.2-2.2,3.9-3.9h46.8v-5.8H94.7c-1.1-2.6-3.8-4.5-6.8-4.5
	c-4.1,0-7.4,3.3-7.4,7.4C80.5,82.6,82.3,85.2,85,86.3z M87.8,76.2c1.8,0,3.3,1.5,3.3,3.3c0,1.8-1.5,3.3-3.3,3.3s-3.3-1.5-3.3-3.3
	C84.6,77.7,86,76.2,87.8,76.2z"/>
<path class="st7" d="M134.7,97c1.2,2.5,3.7,4.2,6.7,4.2c4.1,0,7.4-3.3,7.4-7.4c0-4.1-3.3-7.4-7.4-7.4c-3.1,0-5.8,2-6.9,4.8H101v21.3
	h34.7v8.8H101v28.2H48v-67h10.2v58.2h22.7c1.1,2.8,3.8,4.8,6.9,4.8c4.1,0,7.4-3.3,7.4-7.4c0-4.1-3.3-7.4-7.4-7.4
	c-2.9,0-5.5,1.7-6.7,4.2H64V76.6H42.2v78.6h64.5V127h34.7v-20.3h-34.7V97L134.7,97z M141.4,90.5c1.8,0,3.3,1.5,3.3,3.3
	c0,1.8-1.5,3.3-3.3,3.3s-3.3-1.5-3.3-3.3C138.1,92,139.6,90.5,141.4,90.5z M87.8,134.7c1.8,0,3.3,1.5,3.3,3.3s-1.5,3.3-3.3,3.3
	c-1.8,0-3.3-1.5-3.3-3.3S86,134.7,87.8,134.7z"/>
</svg>
